to colored_ray :y
    right 90
    forward :y
end

to ray :x :y 
    right :x
    colored_ray :y
end

pen down

ray 5 40
pen color #ff0000
ray 10 40
pen color #ffF001
ray 15 50
pen color #ff0000
ray 25 60
pen color #ffF001
ray 35 70
pen color #ff0000
ray 45 80
pen color #ffF001
ray 55 90