to edge
    forward 100
    left 120
end

to triangle
    repeat 3 [ edge ]
end

pen color #ffcc00
triangle

pen up
right 120
forward 100
left 120

pen down
triangle

pen up
forward 100

pen down
triangle
